X:1
T:Title
%%score { 1 | ( 2 3 ) }
L:1/8
M:3/4
K:Eb
V:1 treble nm="Grand Piano"
V:2 bass 
V:3 bass 
V:1
 z2 z2[Q:1/4=106] GA | B2 B2 cB | B2 G2 G2 | [DF]2 [DF]2 [DF]2 |[M:2/4] [EG]2 [GB]2 | %5
[M:1/4] [GB][GB] |[M:3/4] c2 A2 cc | [GB]2 [EG]2 [EB]2 | [DB]2 [DA]2 [DF]2 |[M:2/4] [EG]4 | %10
[M:1/4] [GB][GB] |[M:3/4] c2 c2 c2 | [Ac]2 [GB]2 B2 | c2 e2 c2 |[M:2/4] [GB]2 [EG]2 | %15
[M:1/4] [EG][GB] |[M:3/4] [Ge]2 [Bd]2 .[CAc]2 | [EGB]2 [B,EG]2 [A,E]2 | [B,EG]2 [DA]2 [DF]2 | %19
[M:2/4] E4 |] %20
V:2
 z2 z2 [E,E][E,F,E] | [E,G,E]2 [E,G,E]2 [E,A,E][E,G,E] | [E,G,E]2 [E,B,E]2 [E,B,E]2 | %3
 [B,,B,]2 [B,,B,]2 [B,,B,]2 |[M:2/4] [E,B,]2 [E,B,]2 |[M:1/4] [E,E][E,E] | %6
[M:3/4][K:treble] [A,EA]2 [A,CE]2 [A,EA][A,EA] | [E,E]2 [E,B,]2 [E,G,]2 | %8
 [B,,F,]2 [B,,B,]2 [B,,B,]2 |[M:2/4] [E,B,]4 |[M:1/4] [E,E][E,E] | %11
[M:3/4][K:treble] [A,EA]2 [A,EA]2 [A,EA]2 | [E,E]2 [E,E]2 [E,G,E]2 | [A,E]2 [A,CE]2 [A,EA]2 | %14
[M:2/4] [E,E]2 [E,B,]2 |[M:1/4] [E,B,][E,B,] |[M:3/4] [E,B,]2 [E,B,]2 z D | E,2 E,2 z F | %18
 B,,2 [B,,F,]2 [B,,A,]2 |[M:2/4] [E,G,]4 |] %20
V:3
 x6 | x6 | x6 | x6 |[M:2/4] x4 |[M:1/4] x2 |[M:3/4][K:treble] x6 | x6 | x6 |[M:2/4] x4 | %10
[M:1/4] x2 |[M:3/4][K:treble] x6 | x6 | x6 |[M:2/4] x4 |[M:1/4] x2 |[M:3/4] z2 z2 E,2 | z2 z2 C,2 | %18
 x6 |[M:2/4] x4 |] %20

